X:1
T:Dominus regnavit
T:Josquin desPrez (likely misattrib.)
T:Psalm 93
T:Dominus regnavit
T:Copyright © 2015 by The Choral Public Domain Library. Edition may be freely distributed, duplicated, performed or recorded.
T:Copyright © 2015 by The Choral Public Domain Library. Edition may be freely distributed, duplicated, performed or recorded.
T:Copyright © 2015 by The Choral Public Domain Library. Edition may be freely distributed, duplicated, performed or recorded.
T:Copyright © 2015 by The Choral Public Domain Library. Edition may be freely distributed, duplicated, performed or recorded.
T:Copyright © 2015 by The Choral Public Domain Library. Edition may be freely distributed, duplicated, performed or recorded.
T:Copyright © 2015 by The Choral Public Domain Library. Edition may be freely distributed, duplicated, performed or recorded.
T:Copyright © 2015 by The Choral Public Domain Library. Edition may be freely distributed, duplicated, performed or recorded.
T:Copyright © 2015 by The Choral Public Domain Library. Edition may be freely distributed, duplicated, performed or recorded.
T:Copyright © 2015 by The Choral Public Domain Library. Edition may be freely distributed, duplicated, performed or recorded.
T:Copyright © 2015 by The Choral Public Domain Library. Edition may be freely distributed, duplicated, performed or recorded.
T:Copyright © 2015 by The Choral Public Domain Library. Edition may be freely distributed, duplicated, performed or recorded.
T:Copyright © 2015 by The Choral Public Domain Library. Edition may be freely distributed, duplicated, performed or recorded.
T:Copyright © 2015 by The Choral Public Domain Library. Edition may be freely distributed, duplicated, performed or recorded.
T:Copyright © 2015 by The Choral Public Domain Library. Edition may be freely distributed, duplicated, performed or recorded.
T:Copyright © 2015 by The Choral Public Domain Library. Edition may be freely distributed, duplicated, performed or recorded.
C:Josquin desPrez
C:(likely misattrib.)
Z:Psalm 93
Z:Copyright © 2015 by The Choral Public Domain Library. Edition may be freely distributed, duplicated, performed or recorded.
%%score [ 1 2 3 4 ]
L:1/8
Q:1/4=64
M:2/1
K:G
V:1 treble nm="SOPRANO" snm="S."
V:2 treble nm="ALTO" snm="A."
V:3 treble-8 transpose=-12 nm="TENOR" snm="T."
V:4 bass nm="BASS" snm="B."
V:1
 G12 G4 | G8 A8 | B12 G4 | G8 z4 G4- | G4 G4 c8- | c4 B4 A4 G4 | A8 z8 | G8 A8- | A4 A4 A8 | %9
w: Do- mi-|nus re-|gna- *|vit de-|* co- rem|_ in- du- tus|est:|In- du-|* tus est|
 B12 G4 | G8 c8- | c4 B4 A4 G4 | F4 E4 D4 E2 D2 | E2 F2 G8 F4 | G16 | z16 | z16 | z16 | z16 | z16 | %20
w: Do- mi-|nus for-|* ti- du- ti-|nem, et prae- cin- *|* * * xit|se.||||||
 z16 | z16 | z16 | z16 | z16 | z16 | z16 | z16 | G8 G8 | A8 A8 | B8 G8 | c8 A4 d4- | d4 B8 A2 G2 | %33
w: ||||||||Et- e-|nim fir-|ma- bit|or- bum ter-||
 G8 z8 | z16 | z8 G8- | G8 A8 | B8 G8 | c6 B2 A2 G2 A4- | A4 G8 F4 | G8 z8 | z16 | z16 | z16 | %44
w: rae,||qui|_ non|com- mo-|ve- * * * *|* * ti-|bur,||||
 G16 | G8 c8 | c4 c4 B4 G2 A2 | B2 c2 d8 c2 B2 | A8 c8 | G16 | B16 | A16 | z8 z4 B4- | B4 d8 A4- | %54
w: Pa-|ra- ta|se- des tu- * *||a ex|tunc;|_||a|_ sae- cu-|
 A4 c8 B2 A2 | G6 A2 B4 A4- | A4 G6 E2 F4 | G16 | z8 D8 | D4 D4 d8- | d4 d4 B8- | B4 G4 G8 | %62
w: * lo _ _|_ _ _ _|* tu _ _|es.|E-|le- va- ve-|* runt flu-|* mi- na,|
 c12 A4 | A8 z8 | D8 D4 D4 | d12 d4 | B12 G4 | G8 c8- | c4 A4 d6 c2 | B2 A2 G8 F4 | G8 z8 | %71
w: Do- mi-|ne,|E- le- va-|ve- runt|flu- mi-|na vo-|* cem su- *||am,|
 D8 D4 D4 | d12 d4 | B12 G4 | G8 c8- | c8 A8 | d12 B4 | B8 z8 | G8 c8- | c4 c4 c8 | A8 d8- | %81
w: E- le- va-|ve- runt|flu- mi-|na flu-|* ctus|su- *|os,|a vo-|* ci- bus|a- qua-|
 d4 c4 B4 A4- | A4 G8 F4 | G16 || G8 G4 G4 | A12 D4 | d12 c4 | B4 A4 B8 | G8 z8 | z16 | z16 | %91
w: * rum mul- ta-||rum.|Mi- ra- bi-|les e-|la- ti-|o- nis ma-|ris;|||
 z8 G8 | G4 G4 A8- | A4 D4 d8- | d4 c4 B4 A4 | B8 z8 | z16 | z16 | z8 z4 d4 | B4 c6 B2 A2 G2 | %100
w: mi-|ra- bi- lis|_ in al-|* tis Do- mi-|nus,|||Do-||
 F4 G8 F4 | G16 | z16 | z16 | z16 | z8 A8 | A8 d8- | d4 c4 B4 A4 | G8 A8- | A4 G4 F4 E4 | D8 B8- | %111
w: * * mi-|nus.||||Te-|sti- mo-|* ni- a tu-|a cre-|* di- bi- li-|a fa-|
 B4 A4 G8- | G4 F2 E2 F8 | G16 || z8 G8- | G8 G8 | G16 | G16- | G16 | z8 D8- | D4 E4 F4 G4 | A16 | %122
w: * cta sunt|_ ni- * *|mis.|Do-|* mum|tu-|am|_|de-|* cet san- cti-|tu-|
 E16 | G12 G4 | D16- | D16 | z16 | z16 | z16 | z8 D8 | D12 E4 | F4 G4 A4 B4- | B4 A2 G2 A8 | %133
w: do,|Do- mi-|ne,|_||||in|lon- gi-|tu- di- nem di-|* e- * *|
 G8 z8 | z16 | z8 z4 D4 | G4 G4 A8 | G4 B4 A4 A4 | G8 z8 | z16 | z8 z4 D4 | G8 A8 | G4 B4 A8 | %143
w: rum.||Glo-|ri- a Pa-|tris et Fi- li-|o||et|Spi- ri-|tu- i San-|
 G4 G4 A8 | G4 E4 F4 A4- | A4 G8 F4 | G8 z8 | z4 d4 d4 d4 | B8 z4 B4- | B4 B4 B4 B4 | G8 z8 | G16 | %152
w: cto, et Spi-|ri- tu- i San-||cto.|Si- cut e-|rat in|_ prin- ci- pi-|o,|et|
 A8 B8 | c6 B2 A2 G2 F2 E2 | D4 G8 F4 | G16 | z16 | z16 | z16 | z16 | d12 d4 | d4 d4 B8- | B8 G8 | %163
w: nunc, et|sem- * * * * *||per,|||||et in|sae- cu- la|_ sae-|
 A8 B8 | c6 B2 A2 G2 F2 E2 | D4 G8 F4 | G16 | z16 | z16 | z16 | G16 | A8 B8 | c6 B2 A2 G2 F2 E2 | %173
w: cu- lo-|rum. _ _ _ _ _|_ A- *|men,||||sae-|cu- lo-|rum. _ _ _ _ _|
 D4 G8 F4 | G16- | G16 |] %176
w: _ A- *|men.|_|
V:2
 z8 C8- | C4 C4 C8 | D8 E8- | E4 C4 C8 | z4 C8 C4 | =F12 E4 | D4 C4 D8 | z8 C8 | D12 D4 | D8 E8- | %10
w: Do-|* mi- nus|re- gna-|* * vit|de- co-|rem in-|du- tus est:|In-|du- tus|est Do-|
 E4 C4 C8 | =F12 E4 | D4 C4 B,4 A,4 | G,4 B,4 A,8 | G,16 | z16 | z16 | z16 | z16 | z16 | z16 | %21
w: * mi- nus|for- ti-|du- ti- nem, et|prae- cin- xit|se.|||||||
 z16 | z16 | z16 | z16 | z16 | z16 | z16 | z8 C8 | C8 D8 | D8 E8 | C8 =F8 | D4 G8 E4- | %33
w: |||||||Et-|e- nim|fir- ma-|bit or-|bum ter- *|
 E4 D2 C2 C8 | z16 | z16 | C16 | D8 E8 | C4 =F6 E2 D2 C2 | D4 B,4 A,8 | G,8 z8 | z16 | z16 | z16 | %44
w: * * * rae,|||qui|non com-|mo- ve- * * *|* * ti-|bur,||||
 z16 | C16 | C8 G8 | G4 G4 =F4 D2 E2 | =F2 G2 A8 G2 F2 | E8 G8 | D16 | =F16 | E8 E4 G4- | %53
w: |Pa-|ra- ta|se- des tu- * *||a ex|tunc;|_|* a sae-|
 G4 D8 =F4- | F4 E2 D2 C6 D2 | E4 D6 B,2 C4 | G,8 D8 | D16- | D16 | z8 G,8 | G,4 G,4 G8- | %61
w: * cu- lo|_ _ _ _ _|* tu _ _|_ _|es.|_|E-|le- va- ve-|
 G4 G4 E8- | E4 C4 C8 | =F12 D4 | D8 z8 | G,8 G,4 G,4 | G12 G4 | E12 C4 | C4 =F6 E2 D4- | %69
w: * runt flu-|* mi- na,|Do- mi-|ne,|E- le- va-|ve- runt|flu- mi-|na vo- * *|
 D2 B,2 C4 D8 | D16- | D8 z8 | G,8 G,4 G,4 | G12 G4 | E12 C4 | C8 =F8- | F8 D8 | G12 E4 | E8 z8 | %79
w: * * cem su-|am,|_|E- le- va-|ve- runt|flu- mi-|na flu-|* ctus|su- *|os,|
 C8 =F8- | F4 =F4 F8 | D8 D8 | E4 E4 D8 | D16 || z8 C8 | C4 C4 D8- | D4 G,4 G8- | G4 =F4 E4 D4 | %88
w: a vo-|* ci- bus|a- qua-|rum mul- ta-|rum.|Mi-|ra- bi- les|_ e- la-|* ti- o- nis|
 E8 C8 | z16 | z16 | z16 | C8 C4 C4 | D12 G,4 | G12 =F4 | E4 D4 E8- | E8 z8 | z16 | z4 D4 E4 =F4 | %99
w: ma- ris;||||mi- ra- bi-|lis in|al- tis|Do- mi- nus,|_||mi- ra- bi-|
 G8 E8 | D4 C4 D8 | B,12 A,2 G,2 | D8 z8 | z16 | z16 | z16 | D8 D8 | G12 =F4 | E4 D4 C8 | D12 C4 | %110
w: lis in|al- tis Do-|* mi- *|nus.||||Te- sti-|mo- ni-|a tu- a|cre- di-|
 B,4 A,4 G,8 | z4 D4 B,4 C4 | D4 E4 D8 | D16 || z8 D8- | D8 D8 | E16 | D16 | z8 G,8- | %119
w: bi- li- a|fa- cta sunt|ni- * *|mis.|Do-|* mum|tu-|am|de-|
 G,4 A,4 B,4 C4 | D16 | A,16 | C12 C4 | G,16 | z16 | z16 | z16 | z16 | z16 | G,8 G,8- | %130
w: * cet san- cti-|tu-|do,|Do- mi-|ne,||||||in lon-|
 G,4 A,4 B,4 C4 | D4 E4 F4 G4 | D4 G8 F4 | G8 z8 | z16 | z4 G,4 D4 D4 | E8 D8 | E4 G8 F4 | G8 z8 | %139
w: * gi- tu- di-|nem di- e- *||rum.||Glo- ri- a|Pa- tris|et Fi- li-|o|
 z16 | z4 G,4 D4 D4 | E8 D8 | E4 G8 F4 | G8 z4 D4 | B,4 C4 D8 | B,8 D8 | D16 | z16 | z4 G4 G4 G4 | %149
w: |et Spi- ri-|tu- i|_ San- *|cto, et|Spi- ri- tu-|i San-|cto.||Si- cut e-|
 E16 | z4 E8 E4 | E4 E4 C8 | C4 D8 E4- | E4 =F6 E2 D2 C2 | B,2 A,2 G,4 A,8 | G,16 | z16 | z16 | %158
w: rat|in prin-|ci- pi- o,|et nunc et|_ sem- * * *||per,|||
 z16 | z16 | z16 | z4 G8 G4 | G4 G4 E8 | C4 D8 E4- | E4 =F6 E2 D2 C2 | B,2 A,2 G,4 A,8 | G,16 | %167
w: |||et in|sae- cu- la|sae- cu- lo-|* rum. _ _ _|_ _ _ A-|men,|
 z16 | z16 | z16 | z4 D8 E4 | C4 =F4 D4 G4 | E4 A8 A,4 | B,4 C4 D8- | D4 C2 B,2 E8 | D16 |] %176
w: |||et in|sae- cu- la sae-|cu- lo- rum.|A- * *||men.|
V:3
 z16 | z16 | z16 | z16 | z16 | z16 | z16 | z16 | z16 | z16 | z16 | z16 | z16 | z16 | G12 G4 | %15
w: ||||||||||||||Do- mi-|
 G8 A8 | B12 G4 | G8 z4 G4- | G4 G4 c8- | c4 B4 A4 G4 | A8 z8 | G8 A8- | A4 A4 A8 | B12 G4 | %24
w: nus re-|gna- *|vit de-|* co- rem|_ in- du- tus|est:|In- du-|* tus est|Do- mi-|
 G8 c8- | c4 B4 A4 G4 | F4 E4 D4 E2 D2 | E2 F2 G8 F4 | G8 z8 | z16 | G8 G8 | A8 A8 | B8 G8 | %33
w: nus for-|* ti- du- ti-|nem, et prae- cin- *|* * * xit|se.||Et- e-|nim fir-|ma- bit|
 c8 A8 | d12 B4- | B4 A2 G2 G8 | z16 | z16 | z16 | z16 | G8 A8 | B8 G8 | c6 B2 A2 G2 A4- | %43
w: or- bum|ter- *|* * * rae,|||||qui non|com- mo-|ve- * * * *|
 A4 G8 F4 | G16 | z16 | z8 G8 | G8 d8 | d4 d4 c4 A2 B2 | c2 d2 e8 d2 c2 | B8 d8- | d8 A8 | %52
w: * * ti-|bur,||Pa-|ra- ta|se- des tu- * *||a ex|_ tunc;|
 c12 B4- | B4 B4 d8 | A8 c8- | c4 B2 A2 G4 A4 | B4 G4 A8 | G8 z8 | D8 D4 D4 | d12 B4 | B12 G4 | %61
w: _ _|* a sae-|cu- lo|_ _ _ _ _|* * tu|es.|E- le- va-|ve- runt|flu- mi-|
 G8 c8- | c4 A4 A8 | z8 D8 | D4 D4 d8- | d4 d4 B8- | B4 G4 G8 | c16 | A4 d6 c2 B2 A2 | G8 A8 | %70
w: na, Do-|* mi- ne,|E-|le- va- ve-|* runt flu-|* mi- na|vo-|cem su- * * *||
 G8 z4 D4 | D4 D4 d8- | d4 d4 B8- | B4 G4 G8 | c16 | A8 d8- | d8 B8 | z8 G8 | c12 c4 | c8 A8 | %80
w: am, E-|le- va- ve-|* runt flu-|* mi- na|flu-|ctus su-|* os,|a|vo- ci-|bus a-|
 d12 c4 | B4 A4 G4 A4 | B4 c4 A8 | G16 || z16 | z16 | z16 | z8 G8 | G4 G4 A8- | A4 D4 d8- | %90
w: qua- *|* * rum mul-|ta- * *|rum.||||Mi-|ra- bi- les|_ e- la-|
 d4 c4 B4 A4 | B8 G8 | z16 | z16 | z16 | G8 G4 G4 | A12 D4 | d12 c4 | B4 A4 B8 | G8 c6 B2 | %100
w: * ti- o- nis|ma- ris;||||mi- ra- bi-|lis in|al- tis|Do- * mi-|nus, Do- *|
 A4 G4 A8 | G8 z8 | A8 A8 | d12 c4 | B4 A4 G8 | A12 G4 | F4 E4 D8 | z16 | z16 | z16 | B12 A4 | %111
w: * * mi-|nus.|Te- sti-|mo- ni-|a tu- a|cre- di-|bi- li- a||||fa- *|
 G4 F4 G8 | A16 | G16 || z8 B8- | B8 B8 | c16 | B16- | B16 | z16 | D12 E4 | F4 G4 A8- | A8 E8- | %123
w: * cta sunt|ni-|mis.|Do-|* mum|tu-|am|_||de- cet|san- cti- tu-|* do,|
 E8 G8- | G4 G4 D8- | D8 z4 D4 | D12 E4 | F4 G4 A4 B4- | B4 A2 G2 A8 | G16 | z16 | z16 | z8 D8 | %133
w: _ Do-|* mi- ne,|_ in|lon- gi-|tu- di- nem di-|* e- * *|rum.|||Glo-|
 G4 G4 A8 | G4 B4 A4 A4 | G16 | z16 | z8 D8 | G8 A8 | G4 B4 A8 | G16 | z16 | z16 | z8 D8 | G8 A8 | %145
w: ri- a Pa-|tris et Fi- li-|o||et|Spi- ri-|tu- i San-|cto,|||et|Spi- ri-|
 G4 B4 A8 | G8 z4 d4 | d4 d4 B8 | z4 B8 B4 | B4 B4 G8- | G16 | z16 | z16 | z16 | z16 | G16 | %156
w: tu- i San-|cto, Si-|cut e- rat|in prin-|ci- pi- o,|_|||||et|
 A8 B8 | c6 B2 A2 G2 F2 E2 | D4 G8 F4 | G8 z4 d4- | d4 d4 d4 d4 | B16 | z16 | z16 | z16 | z16 | %166
w: nunc, et|sem- * * * * *||per, et|_ in sae- cu-|la|||||
 G16 | A8 B8 | c6 B2 A2 G2 F2 E2 | D4 G8 F4 | G8 z4 c4- | c4 d8 e4- | e4 =f6 e2 d2 c2 | %173
w: sae-|cu- lo-|rum. _ _ _ _ _|_ A- *|men, sae-|* cu- lo-|* rum. _ _ _|
 B2 A2 G4 A8 | G16- | G16 |] %176
w: _ _ _ A-|men.|_|
V:4
 z16 | z16 | z16 | z16 | z16 | z16 | z16 | z16 | z16 | z16 | z16 | z16 | z16 | z16 | z8 C,8- | %15
w: ||||||||||||||Do-|
 C,4 C,4 C,8 | D,8 E,8- | E,4 C,4 C,8 | z4 C,8 C,4 | =F,12 E,4 | D,4 C,4 D,8 | z8 C,8 | D,12 D,4 | %23
w: * mi- nus|re- gna-|* * vit|de- co-|rem in-|du- tus est:|In-|du- tus|
 D,8 E,8- | E,4 C,4 C,8 | =F,12 E,4 | D,4 C,4 B,,4 A,,4 | G,,4 B,,4 A,,8 | G,,8 z8 | z16 | z8 C,8 | %31
w: est Do-|* mi- nus|for- ti-|du- ti- nem, et|prae- cin- xit|se.||Et-|
 C,8 D,8 | D,4 E,12 | C,8 =F,8 | D,8 G,8- | G,4 E,8 D,2 C,2 | C,8 z8 | z16 | z16 | z16 | C,16 | %41
w: e- nim|fir- ma-|bit or-|bum ter-||rae,||||qui|
 D,8 E,8 | C,4 =F,6 E,2 D,2 C,2 | D,4 B,,4 A,,8 | G,,16 | z16 | z16 | z16 | z16 | C,8 C,8 | %50
w: non com-|mo- ve- * * *|* * ti-|bur,|||||Pa- ra-|
 G,8 G,4 G,4 | =F,4 D,2 E,2 F,2 G,2 A,4- | A,4 G,2 =F,2 E,8 | G,8 D,8 | =F,16 | E,4 G,4 G,4 =F,4 | %56
w: ta se- des|tu- * * * * *|* * * a|ex tunc;|_|* a sae- cu-|
 E,8 D,8 | G,,16- | G,,16 | z4 G,,4 G,,4 G,,4 | G,12 E,4 | E,12 C,4 | C,8 =F,8- | F,4 D,4 D,8 | %64
w: lo tu-|es.|_|E- le- va-|ve- runt|flu- mi-|na, Do-|* mi- ne,|
 z8 G,,8 | G,,4 G,,4 G,8- | G,4 G,4 E,8- | E,4 C,4 C,8 | =F,8 D,8 | E,8 D,8 | G,,16 | z8 G,,8 | %72
w: E-|le- va- ve-|* runt flu-|* mi- na|vo- cem|su- *|am,|E-|
 G,,4 G,,4 G,8- | G,4 G,4 E,8- | E,4 C,4 C,8 | =F,16 | D,8 G,8- | G,4 E,4 E,8 | z8 C,8 | %79
w: le- va- ve-|* runt flu-|* mi- na|flu-|ctus su-|* * os,|a|
 =F,12 F,4 | =F,8 D,8 | G,12 =F,4 | E,4 C,4 D,8 | G,,16 || z16 | z16 | z16 | z16 | C,8 C,4 C,4 | %89
w: vo- ci-|bus a-|qua- *|rum mul- ta-|rum.|||||Mi- ra- bi-|
 D,12 G,,4 | G,12 =F,4 | E,4 D,4 E,8 | C,8 z8 | z16 | z16 | z8 C,8 | C,4 C,4 D,8- | D,4 G,,4 G,8- | %98
w: les e-|la- ti-|o- nis ma-|ris;|||mi-|ra- bi- lis|_ in al-|
 G,4 =F,4 E,4 D,4 | E,8 C,8 | D,4 E,4 D,8 | E,16 | D,8 z4 D,4- | D,4 D,4 G,8- | G,4 =F,4 E,4 D,4 | %105
w: * tis Do- mi-|nus, in|al- tis Do-|mi-|nus. Te-|* sti- mo-|* ni- a tu-|
 C,8 D,8- | D,4 C,4 B,,4 A,,4 | G,,16 | z16 | z16 | z16 | z4 D,4 E,8 | D,4 C,4 D,8 | G,,16 || %114
w: a cre-|* di- bi- li-|a||||fa- cta|sunt _ ni-|mis.|
 z8 G,8- | G,8 G,8 | C,16 | G,16- | G,8 z8 | G,,12 A,,4 | B,,4 C,4 D,8- | D,8 A,,8- | A,,8 C,8- | %123
w: Do-|* mum|tu-|am|_|de- cet|san- cti- tu-|* do,|_ Do-|
 C,4 C,4 G,,8- | G,,16 | z4 G,,4 G,,8- | G,,4 A,,4 B,,4 C,4 | D,4 E,4 F,4 G,4 | D,4 G,8 F,4 | %129
w: * mi- ne,|_|in lon-|* gi- tu- di-|nem di- e- *||
 G,16 | z16 | z16 | G,,8 D,4 D,4 | E,8 D,8 | E,4 G,8 F,4 | G,8 z8 | z16 | z4 G,,4 D,8 | E,8 D,8 | %139
w: rum.|||Glo- ri- a|Pa- tris|et Fi- li-|o||et Spi-|ri- tu-|
 E,4 G,8 F,4 | G,8 z8 | z16 | z16 | G,,8 D,8 | E,8 D,8 | E,4 G,4 D,8 | G,,16- | G,,8 z4 G,4 | %148
w: i San- *|cto,|||et Spi-|ri- tu-|i San- *|cto,|_ Si-|
 G,4 G,4 E,8- | E,8 z4 E,4- | E,4 E,4 E,4 E,4 | C,16 | z16 | z16 | z16 | z8 C,8- | C,4 D,8 E,4- | %157
w: cut e- rat|_ in|_ prin- ci- pi-|o,||||et|_ nunc, et|
 E,4 =F,6 E,2 D,2 C,2 | B,,2 A,,2 G,,4 A,,8 | G,,16- | G,,8 z4 G,4- | G,4 G,4 G,4 G,4 | E,8 z8 | %163
w: _ sem- * * *||per,|_ et|_ in sae- cu-|la|
 z16 | z16 | z16 | z8 C,8- | C,4 D,8 E,4- | E,4 =F,6 E,2 D,2 C,2 | B,,2 A,,2 G,,4 A,,8 | %170
w: |||sae-|* cu- lo-|* rum. _ _ _|_ _ _ A-|
 G,,4 G,8 E,4 | =F,8 G,8 | A,8 D,8 | G,4 E,4 D,8 | G,,8 C,8 | G,,16 |] %176
w: men, et in|sae- cu-|la sae-|cu- lo- rum.|A- *|men.|

